packages/icons/svgs/duotone/Source=team.svg

<svg width="24" height="24" viewBox="0 0 24 24" fill="none" xmlns="http://www.w3.org/2000/svg">
<g clip-path="url(#clip0_2798_1749)">
<path d="M10 10C10 8.89543 9.10457 8 8 8C6.89543 8 6 8.89543 6 10C6 11.1046 6.89543 12 8 12C9.10457 12 10 11.1046 10 10ZM12 10C12 12.2091 10.2091 14 8 14C5.79086 14 4 12.2091 4 10C4 7.79086 5.79086 6 8 6C10.2091 6 12 7.79086 12 10Z" fill="black" style="fill:black;fill-opacity:1;"/>
<path d="M8 15C12.4183 15 16 18.5817 16 23C16 23.5523 15.5523 24 15 24H1C0.447715 24 0 23.5523 0 23C0 18.5817 3.58172 15 8 15ZM8 17C5.02711 17 2.56117 19.1624 2.08496 22H13.915C13.4388 19.1624 10.9729 17 8 17Z" fill="black" style="fill:black;fill-opacity:1;"/>
<g opacity="0.5">
<path d="M18 4C18 2.89543 17.1046 2 16 2C14.8954 2 14 2.89543 14 4C14 5.10457 14.8954 6 16 6C17.1046 6 18 5.10457 18 4ZM20 4C20 6.20914 18.2091 8 16 8C13.7909 8 12 6.20914 12 4C12 1.79086 13.7909 0 16 0C18.2091 0 20 1.79086 20 4Z" fill="black" style="fill:black;fill-opacity:1;"/>
<path d="M16 9C20.4183 9 24 12.5817 24 17C24 17.5523 23.5523 18 23 18H17C16.4477 18 16 17.5523 16 17C16 16.4477 16.4477 16 17 16H21.915C21.4388 13.1624 18.9729 11 16 11C15.7074 11 15.422 11.0204 15.1426 11.0605L15.04 11.0703C14.5337 11.0912 14.0834 10.7253 14.0098 10.2129C13.9315 9.66648 14.3111 9.15974 14.8574 9.08105L15.1396 9.0459C15.4228 9.0155 15.7095 9 16 9Z" fill="black" style="fill:black;fill-opacity:1;"/>
</g>
</g>
<defs>
<clipPath id="clip0_2798_1749">
<rect width="24" height="24" fill="white" style="fill:white;fill-opacity:1;"/>
</clipPath>
</defs>
</svg>

<svg xmlns="http://www.w3.org/2000/svg" width="24" height="24" viewBox="0 0 24 24"><g clip-path="url(#a)"><path d="M10 10a2 2 0 1 0-4 0 2 2 0 0 0 4 0m2 0a4 4 0 1 1-8 0 4 4 0 0 1 8 0m-4 5a8 8 0 0 1 8 8 1 1 0 0 1-1 1H1a1 1 0 0 1-1-1 8 8 0 0 1 8-8m0 2a6 6 0 0 0-5.915 5h11.83A6 6 0 0 0 8 17"/><path d="M18 4a2 2 0 1 0-4 0 2 2 0 0 0 4 0m2 0a4 4 0 1 1-8 0 4 4 0 0 1 8 0m-4 5a8 8 0 0 1 8 8 1 1 0 0 1-1 1h-6a1 1 0 1 1 0-2h4.915a6 6 0 0 0-6.772-4.94l-.103.01a1 1 0 0 1-.183-1.989l.283-.035Q15.565 9 16 9" opacity=".5"/></g><defs><clipPath id="a"><path fill="#fff" d="M0 0h24v24H0z"/></clipPath></defs></svg>
